X: 38180
T: Spotted Dog, The
R: jig
M: 6/8
K: Amajor
EAA ABc|BAF AFE|FBB Bce|faf ecA|
EAA A2 c|BAF Ace|faa eAa|ABc B2:|
cee ece|fec ecA|cec Ace|EF/G/A B2 A|
cec eca|fec e2 a|f2 a eAa|AA/B/c B2:|

